X: 7572
T: Cockstep In The Dunghill, The
R: reel
M: 4/4
K: Gmajor
f|:gfed edBA|G~B3 GEDz|B~e3 Beef|gfed ~B3z|
gfed edBA|G~B3 GED2|Beed efga|agfa ~g3z:|
eBdB ABGA|BAGA B~d3|BAGA B~d3|eBdB ~A3z|
eBdB Az GA|BAGA B~d3|Beed efga|1 agfa ~g3z:|2 agfa g2z||

